X: 3179
T: Bedrock, The
R: reel
M: 4/4
K: Eminor
GFED B,EEG|F2 DB, A,B,DF|GFED B,EEF|GBAd eEEF|
GFED B,EEG|F2 DB, A,B,DF|G2 BG F/F/F AF|1 GBAF GEEF:|2 GBAF GEEz||
|:gfed Beeg|fdAd FDAf|gfed Beef|gbaf geef|
gfed Beeg|fdAd FDef|gbaf gfed|1 BdAF GEef:|2 BdAF GEFD||

